X:12
T:No.112 Hand Me Down the Tackle
M:4/4
L:1/8
C:reel
K:D
dDDD ADFA|gfeg fdBc|
dDDD ADFD|EDEF DFAc:|
defg afdf|e=cBc Gcec|
defg agfa|gbag fd (3gfe|
defg afdf|e=cBc Gceg|
(3agf ge fded|ceaf gfec||
